X:1
T:Title
%%score { ( 1 3 ) | ( 2 4 ) }
L:1/8
Q:1/4=100
M:4/4
K:Ab
V:1 treble nm="Grand Piano"
V:3 treble 
V:2 bass 
V:4 bass 
V:1
 [CE]>[CE] [_CF]>[C=D] [=CE]2 [Ec]2 | [FB]>[FA] [FA]>F E4 | E>E F>[EG] [EA]2 [Ec]2 | %3
w: Adam~Geibel * * * * *|||
 [=DB]>[Dc] [DB]>[Dc] [EB]4 | [GB]>[GB] [GB]>[_Gc] [Fd]2 [Fd]2 | [FA]>[FA] [FA]>[=EB] [_Ec]4 | %6
w: |||
 c>B A>B c2 [A=d]2 |[M:9/8] e6- e/ z/ z z |[M:4/4] e>f e>c A2 F2 | A6 z2 | %10
w: ||||
 [Ec]>[Fd] [Ec]>[DB] [CA]2 [Ec]2 | B6 z2 | c>c c>c [Ae]>[Ae] [Ac]>[EA] | %13
w: |||
[M:5/4] [Ad]2 [Ad]2 [A=d]6 |[M:4/4] [Ae]>c A>F E2 [DGB]2 | [CEA]6 z2 |] %16
w: |||
V:2
 [A,,E,]>[A,,E,] [A,,=D,]>[A,,F,] [A,,E,]2 [A,,A,]2 | [D,A,]>[D,A,] [D,A,]>[F,A,D] [A,C]4 | %2
 [E,G,B,]>[E,G,B,] [E,A,B,]>[D,B,] [C,A,]2 [A,,A,]2 | [B,,A,]>[B,,A,] [B,,A,]>[B,,A,] [E,G,]4 | %4
 [E,B,]>[E,B,] [E,B,]>[E,B,] [B,,B,]2 [B,,B,]2 | [D,A,]>[D,A,] [D,A,]>[D,A,] [A,,A,]4 | %6
 C>B, A,>B, C2 [B,,B,]2 |[M:9/8] .B,3 z3 z3 | %8
[M:4/4][K:treble] [A,CA]>[A,DA] [A,CA]>[A,EA] [A,CE]2[K:bass] [D,A,D]2 | A,,2 A,2 A,2 z2 | %10
 [A,,A,]>[A,,A,] [A,,A,]>[A,,A,] [A,,E,]2 [A,,A,]2 | [E,G,E]2 [B,,F,]2 [E,G,]2 z2 | %12
 [A,E]>[A,E] [A,E]>[A,E] [_G,C]>[G,C] [G,E]>[G,C] |[M:5/4] [F,D]2 [F,A,]2 [=E,_C]6 | %14
[M:4/4] [E,C]>C A,>F, E,2 E,2 | A,,6 z2 |] %16
V:3
 x8 | x8 | x8 | x8 | x8 | x8 | x8 |[M:9/8] G2 A- A B2- B z z |[M:4/4] x8 | [CE]2 [DF]2 [CE]2 z2 | %10
 x8 | z2 =D2 E2 z2 | x8 |[M:5/4] x10 |[M:4/4] x8 | x8 |] %16
V:4
 x8 | x8 | x8 | x8 | x8 | x8 | x8 |[M:9/8] E,2- [E,C]- [E,-C] [E,D]2- [E,D] z z | %8
[M:4/4][K:treble] x6[K:bass] x2 | x8 | x8 | x8 | x8 |[M:5/4] x10 |[M:4/4] x8 | x8 |] %16

